UI/Travel-Transport-Tracking/SVG/shipment_solid_24px.svg

<svg width="24" height="24" viewBox="0 0 24 24" fill="none" xmlns="http://www.w3.org/2000/svg">
<path d="M13 2H18C18.5304 2 19.0391 2.21071 19.4142 2.58579C19.7893 2.96086 20 3.46957 20 4V8H13V2ZM4 8H11V2H6C5.46957 2 4.96086 2.21071 4.58579 2.58579C4.21071 2.96086 4 3.46957 4 4V8ZM13 16H20V10H13V16ZM4 16H11V10H4V16ZM2 18V20H4V22H8V20H16V22H20V20H22V18H2Z" fill="#0F1621"/>
</svg>

<svg xmlns="http://www.w3.org/2000/svg" width="24" height="24" viewBox="0 0 24 24"><rect width="24" height="24" style="fill:none"/><path d="M13,2h5a2,2,0,0,1,2,2V8H13ZM4,8h7V2H6A2,2,0,0,0,4,4Zm9,8h7V10H13ZM4,16h7V10H4ZM2,18v2H4v2H8V20h8v2h4V20h2V18Z"/></svg>
